X:1
T:Title
%%score ( 1 2 ) ( 3 4 )
L:1/8
Q:1/4=104
M:4/4
K:Bb
V:1 treble nm="Grand Piano, Soprano"
V:2 treble 
V:3 bass nm="Choir Pad, Jesus Saves (Leigh)"
V:4 bass 
V:1
 [DF][DF] [DB]2 [EG]2 [DF]2 | [FB][Gc] [Fd]2 [Ec]2 [DB]2 | [FB][Fc] [Fd]2 [FB]2 [=Ec]2 | %3
w: By~B.~E.~Jackson * * * *|||
 [=Ed]2 [Fc]6 | [DF][DF] [DB]2 [EG]2 [DF]2 | [FB][Gc] [Fd]2 [Ec]2 [DB]2 | %6
w: |||
 [FB][Fc] [Fd]2 [FB]2 [Fd]2 | [Ec]2 [DB]6 | z2 B6 | z2 F6 | Bc d2- [Fd-]2 [Fd][FB] | %11
w: |||||
 [=Ec][Ed]c-[Fc-] [Fc-][Fc-] [Fc]2 | dc B2- [DB-]2 [DB][Dc] | [DB][FA]G-[EG-] [EG-][EG] [Ge]2 | %14
w: |||
 Bc .d2- .[Gd]2 F[FB] | [Fd][Ec]B-[EB-] [DB-][_DB-] [=DB]2- | [DB]6 z2 |] %17
w: |||
V:2
 x8 | x8 | x8 | x8 | x8 | x8 | x8 | x8 | dc D2 D2 E[Ec] | [EB][EG]DD DD D2 | z2 F2 z4 | z2 .F2 z4 | %12
 z2 D2 z4 | z2 .E2 z4 | z2 F2 z4 | z2 .D2 z4 | x8 |] %17
V:3
 [B,,B,][B,,B,] [B,,F,]2 [B,,B,]2 [B,,B,]2 | [D,B,][E,B,] [F,B,]2 [F,A,]2 [B,,B,]2 | %2
 [D,B,][F,A,] B,2 [G,D]2 [C,C]2 | [C,B,]2 [F,A,]6 | [B,,B,][B,,B,] [B,,F,]2 [B,,B,]2 [B,,B,]2 | %5
 [D,B,][E,B,] [F,B,]2 [F,A,]2 [G,B,]2 | [D,B,][F,A,] B,2 [D,B,]2 [F,B,]2 | [F,A,]F, [B,,F,]6 | %8
 z2 [B,,F,]2 [B,,F,]2 [E,G,][E,G,] | [E,G,][E,B,][B,,B,][B,,B,] [B,,B,][B,,B,] [B,,B,]2 | %10
 z2 [B,,B,]2 [B,,B,]2 [B,,B,][D,B,] | [C,G,][C,B,][F,A,][F,A,] [F,A,][F,A,] [F,A,]2 | %12
 z2 [B,,F,]2 [B,,F,]2 [B,,F,][B,,F,] | [B,,F,][D,B,][E,B,][E,B,] [E,B,][E,B,] [E,B,]2 | %14
 z2 B,2 [G,B,]2 [D,B,][D,B,] | [F,B,][F,A,]B,G, F,=E, F,2- | F,6 z2 |] %17
V:4
 x8 | x8 | x8 | x8 | x8 | x8 | x8 | x8 | x8 | x8 | x8 | x8 | x8 | x8 | x8 | z2 B,,6- | B,,6 z2 |] %17

